X:4
T:Cronin’s Hornpipe
R:hornpipe
S:Keenan and Glackin
E:7
M:C|
L:1/8
K:G
BA|GABc dBde|gage dega|bage dBGB|cABG A2BA|!
GABc dBde|gage dega|bage dBAB|G2G2 G2:|!
fg|afd^c d2ga|bged e2ga|(3bag (3agf gedB|(3cBA AG AcBA|! GABc dBde|~g3e dega|bage dBAB|G2G2 G2:|!
